antibot/app/images/dist/antihow-step5.svg

<svg width="126" height="118" viewBox="0 0 126 118" fill="none" xmlns="http://www.w3.org/2000/svg">
<circle cx="63" cy="60" r="49" fill="#F4FFF4" stroke="#29B74D" stroke-width="2"/>
<g filter="url(#filter0_d_79_7775)">
<path d="M62.9989 55.5C64.988 55.5 66.8957 54.7098 68.3022 53.3033C69.7087 51.8968 70.4989 49.9891 70.4989 48C70.4989 46.0109 69.7087 44.1032 68.3022 42.6967C66.8957 41.2902 64.988 40.5 62.9989 40.5C61.0098 40.5 59.1021 41.2902 57.6956 42.6967C56.2891 44.1032 55.4989 46.0109 55.4989 48C55.4989 49.9891 56.2891 51.8968 57.6956 53.3033C59.1021 54.7098 61.0098 55.5 62.9989 55.5ZM52.9989 53C52.9989 54.3261 52.4721 55.5979 51.5344 56.5355C50.5968 57.4732 49.325 58 47.9989 58C46.6728 58 45.4011 57.4732 44.4634 56.5355C43.5257 55.5979 42.9989 54.3261 42.9989 53C42.9989 51.6739 43.5257 50.4021 44.4634 49.4645C45.4011 48.5268 46.6728 48 47.9989 48C49.325 48 50.5968 48.5268 51.5344 49.4645C52.4721 50.4021 52.9989 51.6739 52.9989 53ZM41.7239 71.315C41.2971 71.0725 40.9775 70.6779 40.8289 70.21C40.3884 68.7833 40.3838 67.2576 40.8156 65.8283C41.2475 64.399 42.0961 63.1311 43.2529 62.187C44.4097 61.2429 45.8219 60.6656 47.3088 60.5289C48.7956 60.3923 50.2894 60.7025 51.5989 61.42C48.908 64.0644 47.2237 67.5646 46.8364 71.3175C46.7789 71.8725 46.8014 72.4225 46.8989 72.9525C45.0743 72.7947 43.3071 72.2356 41.7239 71.315ZM79.0989 72.95C80.9233 72.793 82.6905 72.2347 84.2739 71.315C84.6997 71.072 85.0184 70.6774 85.1664 70.21C85.6076 68.7832 85.6128 67.2571 85.1812 65.8273C84.7497 64.3975 83.9011 63.1291 82.7442 62.1846C81.5873 61.2402 80.1747 60.6626 78.6875 60.5259C77.2002 60.3892 75.7061 60.6997 74.3964 61.4175C77.0897 64.0618 78.7758 67.5631 79.1639 71.3175C79.2196 71.8628 79.1977 72.4133 79.0989 72.9525V72.95ZM82.9989 53C82.9989 54.3261 82.4721 55.5979 81.5344 56.5355C80.5968 57.4732 79.325 58 77.9989 58C76.6728 58 75.4011 57.4732 74.4634 56.5355C73.5257 55.5979 72.9989 54.3261 72.9989 53C72.9989 51.6739 73.5257 50.4021 74.4634 49.4645C75.4011 48.5268 76.6728 48 77.9989 48C79.325 48 80.5968 48.5268 81.5344 49.4645C82.4721 50.4021 82.9989 51.6739 82.9989 53ZM51.2589 73.475C51.0124 73.2542 50.8212 72.9785 50.7009 72.6701C50.5806 72.3618 50.5345 72.0294 50.5664 71.7C50.8844 68.6237 52.3315 65.7745 54.628 63.7031C56.9246 61.6317 59.9075 60.4852 63.0002 60.4852C66.0928 60.4852 69.0757 61.6317 71.3723 63.7031C73.6688 65.7745 75.1159 68.6237 75.4339 71.7C75.466 72.0295 75.42 72.3618 75.2997 72.6702C75.1794 72.9786 74.9881 73.2543 74.7414 73.475C71.5269 76.3924 67.3399 78.0059 62.9989 78C58.6588 78.0055 54.4726 76.392 51.2589 73.475Z" fill="#2AB74E"/>
</g>
<rect x="11" y="81" width="36" height="36" rx="18" fill="#F4FFF4" stroke="#29B74D" stroke-width="2"/>
<path d="M26.8613 99.3887L24.9863 98.9297L25.7578 91.7812H33.4238V93.7734H27.7109L27.3203 97.2598C27.5417 97.1296 27.8477 97.0026 28.2383 96.8789C28.6289 96.7487 29.0749 96.6836 29.5762 96.6836C30.2467 96.6836 30.8457 96.7943 31.373 97.0156C31.9069 97.2305 32.3594 97.5462 32.7305 97.9629C33.1016 98.373 33.3848 98.8743 33.5801 99.4668C33.7754 100.053 33.873 100.714 33.873 101.449C33.873 102.107 33.7754 102.722 33.5801 103.295C33.3913 103.868 33.1048 104.372 32.7207 104.809C32.3366 105.245 31.8516 105.587 31.2656 105.834C30.6862 106.075 29.9993 106.195 29.2051 106.195C28.6126 106.195 28.043 106.111 27.4961 105.941C26.9557 105.766 26.4707 105.508 26.041 105.17C25.6113 104.825 25.2663 104.402 25.0059 103.9C24.7454 103.393 24.5957 102.81 24.5566 102.152H26.8613C26.9199 102.615 27.0469 103.008 27.2422 103.334C27.444 103.653 27.7109 103.897 28.043 104.066C28.375 104.236 28.7591 104.32 29.1953 104.32C29.5924 104.32 29.9342 104.252 30.2207 104.115C30.5072 103.972 30.7448 103.77 30.9336 103.51C31.1289 103.243 31.2721 102.93 31.3633 102.572C31.4609 102.214 31.5098 101.817 31.5098 101.381C31.5098 100.964 31.4544 100.583 31.3438 100.238C31.2396 99.8932 31.0801 99.5938 30.8652 99.3398C30.6569 99.0859 30.3932 98.8906 30.0742 98.7539C29.7552 98.6107 29.3874 98.5391 28.9707 98.5391C28.4108 98.5391 27.9811 98.6204 27.6816 98.7832C27.3887 98.946 27.1152 99.1478 26.8613 99.3887Z" fill="#29B74D"/>
<defs>
<filter id="filter0_d_79_7775" x="0.495117" y="0.5" width="125.006" height="117.5" filterUnits="userSpaceOnUse" color-interpolation-filters="sRGB">
<feFlood flood-opacity="0" result="BackgroundImageFix"/>
<feColorMatrix in="SourceAlpha" type="matrix" values="0 0 0 0 0 0 0 0 0 0 0 0 0 0 0 0 0 0 127 0" result="hardAlpha"/>
<feOffset/>
<feGaussianBlur stdDeviation="20"/>
<feComposite in2="hardAlpha" operator="out"/>
<feColorMatrix type="matrix" values="0 0 0 0 0.164706 0 0 0 0 0.717647 0 0 0 0 0.305882 0 0 0 0.4 0"/>
<feBlend mode="normal" in2="BackgroundImageFix" result="effect1_dropShadow_79_7775"/>
<feBlend mode="normal" in="SourceGraphic" in2="effect1_dropShadow_79_7775" result="shape"/>
</filter>
</defs>
</svg>

<svg width="126" height="118" fill="none" xmlns="http://www.w3.org/2000/svg"><circle cx="63" cy="60" r="49" fill="#F4FFF4" stroke="#29B74D" stroke-width="2"/><g filter="url(#a)"><path d="M62.999 55.5a7.5 7.5 0 1 0 0-15 7.5 7.5 0 0 0 0 15Zm-10-2.5a5 5 0 1 1-10 0 5 5 0 0 1 10 0ZM41.724 71.315a1.95 1.95 0 0 1-.895-1.105 7.5 7.5 0 0 1 10.77-8.79 16.21 16.21 0 0 0-4.763 9.897 5.755 5.755 0 0 0 .063 1.636 12.425 12.425 0 0 1-5.175-1.638Zm37.375 1.635a12.424 12.424 0 0 0 5.175-1.635 1.95 1.95 0 0 0 .892-1.105 7.5 7.5 0 0 0-10.77-8.792 16.21 16.21 0 0 1 4.768 9.9 5.801 5.801 0 0 1-.065 1.635v-.003Zm3.9-19.95a5 5 0 1 1-10 0 5 5 0 0 1 10 0Zm-31.74 20.475a2.11 2.11 0 0 1-.693-1.775 12.5 12.5 0 0 1 24.868 0 2.107 2.107 0 0 1-.693 1.775A17.437 17.437 0 0 1 63 78a17.435 17.435 0 0 1-11.74-4.525Z" fill="#2AB74E"/></g><rect x="11" y="81" width="36" height="36" rx="18" fill="#F4FFF4" stroke="#29B74D" stroke-width="2"/><path d="m26.861 99.389-1.875-.46.772-7.148h7.666v1.992H27.71l-.39 3.487c.22-.13.527-.257.917-.381a4.23 4.23 0 0 1 1.338-.195c.67 0 1.27.11 1.797.332.534.215.986.53 1.357.947.372.41.655.911.85 1.504.195.586.293 1.247.293 1.982 0 .658-.098 1.273-.293 1.846a4.307 4.307 0 0 1-.86 1.514 3.935 3.935 0 0 1-1.454 1.025c-.58.241-1.267.361-2.06.361a5.723 5.723 0 0 1-1.71-.254 4.651 4.651 0 0 1-1.455-.771 3.926 3.926 0 0 1-1.035-1.27c-.26-.507-.41-1.09-.45-1.748h2.305c.059.463.186.856.381 1.182.202.319.469.563.801.732.332.17.716.254 1.152.254.397 0 .74-.068 1.026-.205a1.94 1.94 0 0 0 .713-.605 2.7 2.7 0 0 0 .43-.938 4.55 4.55 0 0 0 .146-1.191 3.73 3.73 0 0 0-.166-1.143 2.485 2.485 0 0 0-.479-.898 2.047 2.047 0 0 0-.79-.586 2.67 2.67 0 0 0-1.104-.215c-.56 0-.99.081-1.29.244a4.045 4.045 0 0 0-.82.606Z" fill="#29B74D"/><defs><filter id="a" x=".495" y=".5" width="125.006" height="117.5" filterUnits="userSpaceOnUse" color-interpolation-filters="sRGB"><feFlood flood-opacity="0" result="BackgroundImageFix"/><feColorMatrix in="SourceAlpha" values="0 0 0 0 0 0 0 0 0 0 0 0 0 0 0 0 0 0 127 0" result="hardAlpha"/><feOffset/><feGaussianBlur stdDeviation="20"/><feComposite in2="hardAlpha" operator="out"/><feColorMatrix values="0 0 0 0 0.164706 0 0 0 0 0.717647 0 0 0 0 0.305882 0 0 0 0.4 0"/><feBlend in2="BackgroundImageFix" result="effect1_dropShadow_79_7775"/><feBlend in="SourceGraphic" in2="effect1_dropShadow_79_7775" result="shape"/></filter></defs></svg>
